file/imdb.svg

<svg clip-rule="evenodd" fill-rule="evenodd" stroke-linejoin="round" stroke-miterlimit="1.41421" viewBox="0 0 560 400" xmlns="http://www.w3.org/2000/svg"><g transform="matrix(.959488 0 0 .959488 88.1023 56.1247)"><path d="m387.6 224.3v-148.9c-1-7.9-7.2-14.2-15.1-15.5h-344.9c-8.6 1.4-15.2 8.8-15.2 17.8v144.3c0 9.9 8.1 18 18 18h339.2c9.3 0 16.8-6.8 18-15.7z" fill="#f5c518"/><path d="m63.1 94.7h28.4v109.2h-28.4zm88.8 0-6.6 51-4.1-27.7c-1.2-8.9-2.3-16.7-3.4-23.3h-36.8v109.2h24.8l.1-72.1 10.5 72.1h17.7l9.9-73.7.1 73.7h24.8v-109.2zm111.1 35.4v41.3c0 9.8-.5 16.3-1.5 19.6-.9 3.3-2.5 5.9-4.8 7.7-2.3 1.9-5.1 3.2-8.5 3.9s-8.5 1.1-15.3 1.1h-34.4v-109h21.2c13.7 0 21.6.6 26.5 1.9 4.8 1.3 8.5 3.3 11 6.2s4.1 6.1 4.7 9.6c0 .2.1.4.1.6.6 3.3 1 9 1 17.1zm-36 54.9c4.1 0 6.6-.8 7.5-2.5.9-1.6 1.4-6.1 1.4-13.4v-42.3c0-4.9-.2-8.1-.5-9.5s-1-2.4-2.2-3.1c-.6-.4-1.5-.6-2.7-.8-.3 0-.6-.1-1-.1-.8-.1-1.6-.1-2.6-.1v71.8zm109.9-36.8v30.6c0 6.5-.4 11.4-1.3 14.6s-3 6-6.2 8.3c-3.3 2.4-7.1 3.5-11.6 3.5-3.2 0-7.4-.7-10.2-2.1s-5.3-3.5-7.6-6.3l-1.8 7h-25.5v-109.1h27.3v35.5c2.3-2.6 4.8-4.6 7.6-5.9s7-1.9 10.2-1.9h.7c3.5.1 6.5.6 9.1 1.7 2.8 1.2 4.9 2.8 6.3 4.9s2.3 4.2 2.6 6.2c.3 2.1.4 6.4.4 13zm-36 39.3c.6 1.3 1.7 2 3.4 2s4-.7 4.5-2.1.8-4.7.8-10v-28c0-4.6-.3-7.6-.9-9s-2.9-2.1-4.6-2.1h-.3c-1.5.1-2.5.7-3 1.8-.5 1.2-.8 4.3-.8 9.3v28.8c0 4.8.3 7.9.9 9.3z" fill-rule="nonzero"/></g></svg>

<?xml version="1.0" encoding="UTF-8" standalone="no"?>
<!DOCTYPE svg PUBLIC "-//W3C//DTD SVG 1.1//EN" "http://www.w3.org/Graphics/SVG/1.1/DTD/svg11.dtd">
<svg width="100%" height="100%" viewBox="0 0 560 400" version="1.1" xmlns="http://www.w3.org/2000/svg" xmlns:xlink="http://www.w3.org/1999/xlink" xml:space="preserve" xmlns:serif="http://www.serif.com/" style="fill-rule:evenodd;clip-rule:evenodd;stroke-linejoin:round;stroke-miterlimit:1.41421;">
    <g transform="matrix(0.959488,0,0,0.959488,88.1023,56.1247)">
        <path id="Yellow" d="M387.6,224.3L387.6,75.4C386.6,67.5 380.4,61.2 372.5,59.9L27.6,59.9C19,61.3 12.4,68.7 12.4,77.7L12.4,222C12.4,231.9 20.5,240 30.4,240L369.6,240C378.9,240 386.4,233.2 387.6,224.3Z" style="fill:rgb(245,197,24);"/>
        <path id="Black" d="M63.1,94.7L91.5,94.7L91.5,203.9L63.1,203.9L63.1,94.7ZM151.9,94.7L145.3,145.7L141.2,118C140,109.1 138.9,101.3 137.8,94.7L101,94.7L101,203.9L125.8,203.9L125.9,131.8L136.4,203.9L154.1,203.9L164,130.2L164.1,203.9L188.9,203.9L188.9,94.7L151.9,94.7ZM263,130.1L263,171.4C263,181.2 262.5,187.7 261.5,191C260.6,194.3 259,196.9 256.7,198.7C254.4,200.6 251.6,201.9 248.2,202.6C244.8,203.3 239.7,203.7 232.9,203.7L198.5,203.7L198.5,94.7L219.7,94.7C233.4,94.7 241.3,95.3 246.2,96.6C251,97.9 254.7,99.9 257.2,102.8C259.7,105.7 261.3,108.9 261.9,112.4C261.9,112.6 262,112.8 262,113C262.6,116.3 263,122 263,130.1ZM227,185C231.1,185 233.6,184.2 234.5,182.5C235.4,180.9 235.9,176.4 235.9,169.1L235.9,126.8C235.9,121.9 235.7,118.7 235.4,117.3C235.1,115.9 234.4,114.9 233.2,114.2C232.6,113.8 231.7,113.6 230.5,113.4C230.2,113.4 229.9,113.3 229.5,113.3C228.7,113.2 227.9,113.2 226.9,113.2L226.9,185L227,185ZM336.9,148.2L336.9,178.8C336.9,185.3 336.5,190.2 335.6,193.4C334.7,196.6 332.6,199.4 329.4,201.7C326.1,204.1 322.3,205.2 317.8,205.2C314.6,205.2 310.4,204.5 307.6,203.1C304.8,201.7 302.3,199.6 300,196.8L298.2,203.8L272.7,203.8L272.7,94.7L300,94.7L300,130.2C302.3,127.6 304.8,125.6 307.6,124.3C310.4,123 314.6,122.4 317.8,122.4L318.5,122.4C322,122.5 325,123 327.6,124.1C330.4,125.3 332.5,126.9 333.9,129C335.3,131.1 336.2,133.2 336.5,135.2C336.8,137.3 336.9,141.6 336.9,148.2ZM300.9,187.5C301.5,188.8 302.6,189.5 304.3,189.5C306,189.5 308.3,188.8 308.8,187.4C309.3,186 309.6,182.7 309.6,177.4L309.6,149.4C309.6,144.8 309.3,141.8 308.7,140.4C308.1,139 305.8,138.3 304.1,138.3L303.8,138.3C302.3,138.4 301.3,139 300.8,140.1C300.3,141.3 300,144.4 300,149.4L300,178.2C300,183 300.3,186.1 300.9,187.5Z" style="fill-rule:nonzero;"/>
    </g>
</svg>
